X:1
T:Title
%%score { ( 1 3 ) | ( 2 4 ) }
L:1/8
M:4/4
K:A
V:1 treble nm="Grand Piano"
V:3 treble 
V:2 bass 
V:4 bass 
V:1
 z4 z2[Q:1/4=88] [A,C][B,D] | [CE][CE][CE][CE] [CE][Ec][EB][EA] |[M:3/4] BF F>^E F2 | %3
[M:1/4] F[DA] |[M:4/4] AGGG GdFG |[M:3/4] [DF][CE] [CE]>[=C^D] [^CE]2 |[M:1/4] [A,C][B,D] | %7
[M:4/4] [CE][CE][CE][CE] [CE][Ec][EB][EA] |[M:3/4] BF F>F [Fd]2 |[M:1/4] [Fd][Fd] | %10
[M:4/4] [Fd]ccd cBFG |[M:3/4] [DB][CA] [CA]>[B,G] [CA]2 |[M:1/4] [Ec]>[EA] |[M:4/4] [Fd]6 z2 | %14
 z [Ec]3- [Ec]2 z2 | e6 z2 | B6 z2 | [Ec]6[K:bass][K:treble] z2 | z [Fd]3- [Fd]2 z2 | %19
 e2- [Ae-][Ae-] [Ae][EAc][DGB][Ec] |[M:3/4] A6 |] %21
V:2
 z4 z2 [A,,E,][A,,E,] | [A,,A,][A,,A,][A,,A,][A,,A,] [A,,A,][A,,A,][B,,G,][C,A,] | %2
[M:3/4] [D,F,D][D,A,D] [D,A,D]>[D,A,C] [D,A,D]2 |[M:1/4] [D,A,D][B,,B,] | %4
[M:4/4] [E,B,D][E,B,D][E,B,D][E,B,D] [E,B,D][E,G,F][E,A,D][E,B,E] | %5
[M:3/4] [A,,A,][A,,A,] [A,,A,]>[A,,A,] [A,,A,]2 |[M:1/4] [A,,E,][A,,E,] | %7
[M:4/4] [A,,A,][A,,A,][A,,A,][A,,A,] [A,,A,][A,,A,][B,,G,][C,A,] | %8
[M:3/4] [D,F,D][D,A,D] [D,A,D]>[D,A,D] [D,A,]2 |[M:1/4] [D,A,][B,,A,] | %10
[M:4/4] [E,A,][E,A,E][E,A,E][E,A,F] [E,G,E][E,G,D][E,A,D][E,B,D] | %11
[M:3/4] [A,,A,][A,,E,] [A,,E,]>[A,,E,] [A,,E,]2 |[M:1/4] [A,,A,]>[C,A,] | %13
[M:4/4] [D,A,]2 D,D, D,[D,A,D][D,F,D][D,A,] | [A,,A,][A,,A,]A,,A,, A,,A,,[K:treble] [A,E]>[A,CE] | %15
 [A,A]2 z2 z4[K:bass] | .[G,E]2 z2 z4 | .[A,,A,]2 E,A, E,C,[B,,G,][A,,A,] | %18
 [D,A,][D,A,]D,D, D,D, [C,A,]>[D,D] | C6 z2 |[M:3/4] z2 F,F, E,2 |] %21
V:3
 x8 | x8 |[M:3/4] x6 |[M:1/4] x2 |[M:4/4] x8 |[M:3/4] x6 |[M:1/4] x2 |[M:4/4] x8 |[M:3/4] x6 | %9
[M:1/4] x2 |[M:4/4] x8 |[M:3/4] x6 |[M:1/4] x2 |[M:4/4] z2 A,A, A,FA[Fd] | .[Fd]2 A,A, A,A, c>A | %15
 z2 AA AcBA | z FGA G2 [Ge]>[Fd] | z[K:bass] C, .A,2 A,[K:treble][A,EA][EB][Ec] | %18
 .[Fe]2 A,A, A,A, [Ae]>[Af] | A2 z2 z4 |[M:3/4] [A,C]2 DD C2 |] %21
V:4
 x8 | x8 |[M:3/4] x6 |[M:1/4] x2 |[M:4/4] x8 |[M:3/4] x6 |[M:1/4] x2 |[M:4/4] x8 |[M:3/4] x6 | %9
[M:1/4] x2 |[M:4/4] x8 |[M:3/4] x6 |[M:1/4] x2 |[M:4/4] x8 | x6[K:treble] x2 | %15
 C2- [A,C-][A,C-] [A,C][K:bass][A,E][G,B,E][F,B,^D] | %16
 E,-[E,-A,][E,-B,][E,-C] [E,D]2 [E,B,]>[E,G,] | x8 | x8 | E,2 E,E, E,E,E,[E,G,] |[M:3/4] A,,6 |] %21

